X: 1
T: Amelia
C: Bob McQuillen 1981
R: waltz
Z: 2015 by John Chambers <jc:trillian.mit.edu>
B: Barnes v.2 p.74
M: 3/4
L: 1/8
K: D
A,2 \
| "D"D3 E D2 | D2 F3 E | D2 F2 "G"B2 | "D7"A4 A2 \
| "G"B3 G B2 | "D"A2 F2 E2 | "Bm"D2 B,3 B, | "G"B,4 "A7"A,2 |
| "D"D3 E D2 | D2 F3 E | "Bm"D2 F2 "G"B2 | "D"A4 A2 \
| "G"B3 c d2 | "Em"d2 e2 f2 | "A7"e3 c A2 | "A"A4 |]
a2 \
| "D"f2 a3 f | "D"a2 f2 d2 | "A"e3 c B2 | A4 fe \
| "Bm"d3 B d2 | f2 d2 B2 | "F#m"c3 A F2 | F4 A2 |
| "G"G2 B3 G | "D"F2 A2 d2 | "A"e3 c A2 | "D"d4 f2 \
| "G"g3 f e2 | "D"a2 f2 "Bm"d2 | "G"d2 e3 "A7"c | "D"d4 :|
